X:1560
T:the Trip to Plymouth
A:Wyresdale, Lancashire
B:E and J Winder, 1835-41
L:1/8
M:6/8
O:England
Z:Richard Robinson 
%%TUNEURL: http://www.leeds.ac.uk/music/Info/RRTuneBk/gettune/000005b2.html
%%ID:000005b2
K:D
A | d2f ecA | B2d AFD | FGA Bcd | efd {d}cB \
A | d2f ecA | B2d AFD | FGA Bcd | {f}edc d2 ::
A | e2f ecA | f2g fdA | Bcd efg | Bed {d}c2\
A | e2f ecA | f2d AFD | FGA Bcd | {f}edc d2 :|
